X: 2
T: New Tambourine    (G)
O: Walsh 1748
N: Pub: J. Walsh, London, 1748
Z: 2012 John Chambers <jc:trillian.mit.edu>
M: C
L: 1/8
K: G
% - - - - - - - - - - - - - - - - - - - - - - - - -
D |\
"C"E/F/G "G"GF "C"E2 "G"D2 | "C"ED "D7"EF "G"G/F/G/A/ GD |\
"C"E/F/G "G"GF "C"E2 "G"D2 | "C"ED"D7"EF "G"G3 :|
|: G |\
"G"B/c/d "D7"dc "G"B2 "D"A2 | "G"d2 "(D7)"d/e/d/c/ "G"B2 "D"A2 "I"|\
"G"B/c/d "D7"dc "G"B2 "D7"A/B/c | "Em"BG"D7"DF "G"G3 :|
% - - - - - - - - - - - - - - - - - - - - - - - - -
% %begintext align
% % All four fall back and forward again and turn single, Men change Places with the Wo. .|
% % 1st Man change with 2d Wo. 2d Man with the 1st Wo. :|
% % 1st Cu. being in 2d Cu. Place Jigg it up. All four Lead to the Wall, back again .|
% % 1st Cu. go the half figure thro' 2d Cu. turn hands with your Partner, and jump and cast off :|
% %endtext

%%sep 1 1 500

